X: 67
T:Through The Wood Spinning. WI.067
M:C|
Q:100
S:Wm Irwin, Folio MS, c1850. AGG's Transcription
R:Country Dance
O:England
A:Lake District
Z:vmp.Chris Partington.2005
K:A
d|cAa2 a/g/f/g/ a2|ec d/c/B/A/ GBBd|!
cAa2 a/g/f/g/ a2|ec d/c/B/A/ EAA:|!
|:d|cAce dfca|cA d/c/B/A/ GBBd|!
cAce dfca|cA d/c/B/A/ EAA:|]
